svgs/duotone/sun-bright.svg

<svg xmlns="http://www.w3.org/2000/svg" viewBox="0 0 512 512"><!-- Font Awesome Pro 6.0.0-alpha2 by @fontawesome - https://fontawesome.com License - https://fontawesome.com/license (Commercial License) --><defs><style>.fa-secondary{opacity:.4}</style></defs><path d="M108.922 74.969C99.578 65.594 84.359 65.594 74.984 74.969S65.609 99.531 74.984 108.906L120.234 154.188C124.906 158.875 131.062 161.219 137.203 161.219S149.484 158.875 154.172 154.188C163.547 144.812 163.547 129.625 154.172 120.25L108.922 74.969ZM256 0C242.75 0 232 10.75 232 24V88C232 101.25 242.75 112 256 112S280 101.25 280 88V24C280 10.75 269.25 0 256 0ZM112 256C112 242.75 101.25 232 88 232H24C10.75 232 0 242.75 0 256S10.75 280 24 280H88C101.25 280 112 269.25 112 256ZM374.797 161.219C380.937 161.219 387.094 158.875 391.766 154.187L437.016 108.906C446.391 99.531 446.391 84.344 437.016 74.969S412.422 65.594 403.078 74.969L357.828 120.25C348.453 129.625 348.453 144.812 357.828 154.187C362.516 158.875 368.656 161.219 374.797 161.219ZM256 400C242.75 400 232 410.75 232 424V488C232 501.25 242.75 512 256 512S280 501.25 280 488V424C280 410.75 269.25 400 256 400ZM120.234 357.812L74.984 403.094C65.609 412.469 65.609 427.656 74.984 437.031C79.672 441.719 85.812 444.063 91.953 444.063S104.25 441.719 108.922 437.031L154.172 391.75C163.547 382.375 163.547 367.188 154.172 357.812S129.578 348.438 120.234 357.812ZM488 232H424C410.75 232 400 242.75 400 256S410.75 280 424 280H488C501.25 280 512 269.25 512 256S501.25 232 488 232ZM391.766 357.812C382.422 348.437 367.203 348.437 357.828 357.812S348.453 382.375 357.828 391.75L403.078 437.031C407.75 441.719 413.906 444.063 420.047 444.063S432.328 441.719 437.016 437.031C446.391 427.656 446.391 412.469 437.016 403.094L391.766 357.812Z" class="fa-secondary"/><path d="M256 144C194.145 144 144 194.143 144 256C144 317.855 194.145 368 256 368S368 317.855 368 256C368 194.143 317.855 144 256 144Z" class="fa-primary"/></svg>

<svg xmlns="http://www.w3.org/2000/svg" viewBox="0 0 512 512"><!--! Font Awesome Pro 6.3.0 by @fontawesome - https://fontawesome.com License - https://fontawesome.com/license (Commercial License) Copyright 2023 Fonticons, Inc. --><defs><style>.fa-secondary{opacity:.4}</style></defs><path class="fa-primary" d="M256 144a112 112 0 1 0 0 224 112 112 0 1 0 0-224z"/><path class="fa-secondary" d="M280 24c0-13.3-10.7-24-24-24s-24 10.7-24 24V88c0 13.3 10.7 24 24 24s24-10.7 24-24V24zm0 400c0-13.3-10.7-24-24-24s-24 10.7-24 24v64c0 13.3 10.7 24 24 24s24-10.7 24-24V424zM512 256c0-13.3-10.7-24-24-24H424c-13.3 0-24 10.7-24 24s10.7 24 24 24h64c13.3 0 24-10.7 24-24zM88 280c13.3 0 24-10.7 24-24s-10.7-24-24-24H24c-13.3 0-24 10.7-24 24s10.7 24 24 24H88zM437 75c-9.4-9.4-24.6-9.4-33.9 0l-45.3 45.3c-9.4 9.4-9.4 24.6 0 33.9s24.6 9.4 33.9 0L437 108.9c9.4-9.4 9.4-24.6 0-33.9zM154.2 391.8c9.4-9.4 9.4-24.6 0-33.9s-24.6-9.4-33.9 0L75 403.1c-9.4 9.4-9.4 24.6 0 33.9s24.6 9.4 33.9 0l45.3-45.3zM437 437c9.4-9.4 9.4-24.6 0-33.9l-45.3-45.3c-9.4-9.4-24.6-9.4-33.9 0s-9.4 24.6 0 33.9L403.1 437c9.4 9.4 24.6 9.4 33.9 0zM120.2 154.2c9.4 9.4 24.6 9.4 33.9 0s9.4-24.6 0-33.9L108.9 75c-9.4-9.4-24.6-9.4-33.9 0s-9.4 24.6 0 33.9l45.3 45.3z"/></svg>
